Numix/scalable/status/channel-insecure-symbolic.svg

<?xml version="1.0" encoding="UTF-8" standalone="no"?>
<svg
   xmlns:osb="http://www.openswatchbook.org/uri/2009/osb"
   xmlns:dc="http://purl.org/dc/elements/1.1/"
   xmlns:cc="http://creativecommons.org/ns#"
   xmlns:rdf="http://www.w3.org/1999/02/22-rdf-syntax-ns#"
   xmlns:svg="http://www.w3.org/2000/svg"
   xmlns="http://www.w3.org/2000/svg"
   xmlns:sodipodi="http://sodipodi.sourceforge.net/DTD/sodipodi-0.dtd"
   xmlns:inkscape="http://www.inkscape.org/namespaces/inkscape"
   width="16"
   viewBox="0 0 16 16"
   height="16"
   id="svg2"
   version="1.1"
   inkscape:version="0.91 r"
   sodipodi:docname="channel-insecure-symbolic.svg">
  <metadata
     id="metadata10">
    <rdf:RDF>
      <cc:Work
         rdf:about="">
        <dc:format>image/svg+xml</dc:format>
        <dc:type
           rdf:resource="http://purl.org/dc/dcmitype/StillImage" />
        <dc:title></dc:title>
      </cc:Work>
    </rdf:RDF>
  </metadata>
  <sodipodi:namedview
     pagecolor="#ffffff"
     bordercolor="#666666"
     borderopacity="1"
     objecttolerance="10"
     gridtolerance="10"
     guidetolerance="10"
     inkscape:pageopacity="0"
     inkscape:pageshadow="2"
     inkscape:window-width="1920"
     inkscape:window-height="1056"
     id="namedview8"
     showgrid="true"
     inkscape:zoom="20.85965"
     inkscape:cx="5.1534794"
     inkscape:cy="10.734904"
     inkscape:window-x="0"
     inkscape:window-y="24"
     inkscape:window-maximized="1"
     inkscape:current-layer="svg2">
    <inkscape:grid
       type="xygrid"
       id="grid4133" />
  </sodipodi:namedview>
  <defs
     id="defs4">
    <linearGradient
       id="linearGradient5606"
       osb:paint="solid">
      <stop
         id="stop5608"
         offset="0"
         style="stop-color:#000000;stop-opacity:1;" />
    </linearGradient>
  </defs>
  <path
     style="opacity:1;fill:#bebebe;fill-opacity:1;fill-rule:nonzero;stroke:none;stroke-width:3;stroke-linecap:butt;stroke-linejoin:miter;stroke-miterlimit:4;stroke-dasharray:none;stroke-dashoffset:0;stroke-opacity:1"
     d="M 7.2558594,0.05078125 C 6.688841,0.11994797 6.1299695,0.26283447 5.6035156,0.49023438 4.0914235,1.1433773 3,2.4554552 3,4 L 3,6 C 1.892,6 1,6.892 1,8 l 0,6 c 0,1.108 0.892,2 2,2 l 10,0 c 1.108,0 2,-0.892 2,-2 L 15,9 9,9 C 7.9092972,9 7,8.0907028 7,7 L 7,6 5,6 5,4 C 5,3.4062293 5.4333678,2.7421867 6.3964844,2.3261719 6.5848621,2.2448027 6.7920698,2.1922081 7,2.1425781 L 7,1 C 7,0.65637778 7.0981169,0.33563189 7.2558594,0.05078125 Z"
     id="rect4146"
     inkscape:connector-curvature="0"
     sodipodi:nodetypes="csscssssscssccsscsc" />
  <path
     id="rect4183"
     d="M 9,0 C 8.446,0 8,0.446 8,0.9999999 l 0,6 c 0,0.5539998 0.446,0.9999998 1,0.9999998 l 6,0 c 0.554,0 1,-0.446 1,-0.9999998 l 0,-6 C 16,0.446 15.554,0 15,0 L 9,0 Z m 2,0.9999999 2,0 0,4 -2,0 0,-4 z m 0,5 2,0 0,1 -2,0 0,-1 z"
     style="opacity:1;fill:#ff8000;fill-opacity:1;fill-rule:nonzero;stroke:none;stroke-width:2;stroke-linecap:square;stroke-linejoin:miter;stroke-miterlimit:4;stroke-dasharray:none;stroke-dashoffset:0;stroke-opacity:1"
     inkscape:connector-curvature="0" />
  <g
     id="layer1"
     inkscape:label="places"
     style="display:inline"
     transform="translate(56.17127,-499.79611)" />
  <g
     id="layer14"
     inkscape:label="mimetypes"
     style="display:inline"
     transform="translate(-184.82893,117.20389)" />
  <g
     id="layer15"
     inkscape:label="emblems"
     style="display:inline"
     transform="translate(-184.82893,117.20389)" />
  <g
     id="g71291"
     inkscape:label="emotes"
     style="display:inline"
     transform="translate(-184.82893,117.20389)" />
  <g
     id="layer2"
     inkscape:label="categories"
     style="display:inline"
     transform="translate(56.17127,-349.79611)" />
  <g
     id="g6058"
     inkscape:label="apps"
     style="display:inline"
     transform="translate(56.17127,-349.79611)" />
  <g
     id="layer12"
     inkscape:label="actions"
     style="display:inline"
     transform="translate(-184.82893,117.20389)" />
</svg>

<svg xmlns="http://www.w3.org/2000/svg" viewBox="0 0 16 16">
 <path d="m 7.256 0.051 c -0.567 0.069 -1.126 0.212 -1.652 0.439 -1.512 0.653 -2.604 1.965 -2.604 3.51 l 0 2 c -1.108 0 -2 0.892 -2 2 l 0 6 c 0 1.108 0.892 2 2 2 l 10 0 c 1.108 0 2 -0.892 2 -2 l 0 -5 -6 0 c -1.091 0 -2 -0.909 -2 -2 l 0 -1 -2 0 0 -2 c 0 -0.594 0.433 -1.258 1.396 -1.674 0.188 -0.081 0.396 -0.134 0.604 -0.184 l 0 -1.143 c 0 -0.344 0.098 -0.664 0.256 -0.949" style="fill:#bebebe;opacity:1;fill-opacity:1;stroke:none;fill-rule:nonzero"/>
 <path d="m 9 0 c -0.554 0 -1 0.446 -1 1 l 0 6 c 0 0.554 0.446 1 1 1 l 6 0 c 0.554 0 1 -0.446 1 -1 l 0 -6 c 0 -0.554 -0.446 -1 -1 -1 l -6 0 m 2 1 2 0 0 4 -2 0 0 -4 z m 0 5 2 0 0 1 -2 0 0 -1 z" style="fill:#ff8000;opacity:1;fill-opacity:1;stroke:none;fill-rule:nonzero"/>
</svg>
